X: 5907
T: Cambridge, The
R: hornpipe
M: 4/4
K: Gminor
dB (3BBB FBde|f2ba bfdf|gecB Adfd|e2d2 cedc|
B2 dB FBde|fbba bfdf|gecB Adfd|1 e2dc B2F2:|2 e2dc B2 (3cde||
|:f2 (3fff bfdf|c2 c'2 c'2c'b|ac'fa c'fac'|bd'fb d'fbd'|
f'2d'2 b2a2|gbeg fede|cbag fedc|1 cBAd B2 (3cde:|2 cBAd B2f2||

